scalable/apps/reboot-notifier.svg

<?xml version="1.0" encoding="UTF-8" standalone="no"?>
<!-- Generator: Adobe Illustrator 19.0.0, SVG Export Plug-In . SVG Version: 6.00 Build 0)  -->

<svg
   xmlns:dc="http://purl.org/dc/elements/1.1/"
   xmlns:cc="http://creativecommons.org/ns#"
   xmlns:rdf="http://www.w3.org/1999/02/22-rdf-syntax-ns#"
   xmlns:svg="http://www.w3.org/2000/svg"
   xmlns="http://www.w3.org/2000/svg"
   xmlns:xlink="http://www.w3.org/1999/xlink"
   xmlns:sodipodi="http://sodipodi.sourceforge.net/DTD/sodipodi-0.dtd"
   xmlns:inkscape="http://www.inkscape.org/namespaces/inkscape"
   version="1.1"
   id="Capa_1"
   x="0px"
   y="0px"
   viewBox="0 0 48 48"
   xml:space="preserve"
   sodipodi:docname="reboot-notifier.svg"
   width="48"
   height="48"
   inkscape:version="0.92.3 (2405546, 2018-03-11)"><metadata
   id="metadata41"><rdf:RDF><cc:Work
       rdf:about=""><dc:format>image/svg+xml</dc:format><dc:type
         rdf:resource="http://purl.org/dc/dcmitype/StillImage" /><dc:title /></cc:Work></rdf:RDF></metadata><defs
   id="defs39"><linearGradient
     inkscape:collect="always"
     id="linearGradient865"><stop
       style="stop-color:#000004;stop-opacity:1;"
       offset="0"
       id="stop861" /><stop
       style="stop-color:#000004;stop-opacity:0;"
       offset="1"
       id="stop863" /></linearGradient><linearGradient
     x1="-83.756935"
     y1="-7.8379993"
     x2="-92.222527"
     y2="27.521217"
     id="linearGradient5588"
     xlink:href="#linearGradient3202"
     gradientUnits="userSpaceOnUse"
     gradientTransform="matrix(0.5857566,-0.140767,0.1402401,0.5879573,74.307775,0.1578927)" /><linearGradient
     id="linearGradient3202"><stop
       id="stop3204"
       style="stop-color:white;stop-opacity:1"
       offset="0" /><stop
       id="stop3206"
       style="stop-color:#d3eefc;stop-opacity:1"
       offset="1" /></linearGradient><linearGradient
     inkscape:collect="always"
     xlink:href="#linearGradient865"
     id="linearGradient893"
     gradientUnits="userSpaceOnUse"
     x1="12.235293"
     y1="8.0923023"
     x2="40.291149"
     y2="38.680538" /></defs><sodipodi:namedview
   pagecolor="#ffffff"
   bordercolor="#666666"
   borderopacity="1"
   objecttolerance="10"
   gridtolerance="10"
   guidetolerance="10"
   inkscape:pageopacity="0"
   inkscape:pageshadow="2"
   inkscape:window-width="1366"
   inkscape:window-height="719"
   id="namedview37"
   showgrid="false"
   showguides="true"
   inkscape:guide-bbox="true"
   inkscape:zoom="5.3125"
   inkscape:cx="24.935001"
   inkscape:cy="24"
   inkscape:window-x="0"
   inkscape:window-y="25"
   inkscape:window-maximized="1"
   inkscape:current-layer="Capa_1"
   inkscape:snap-smooth-nodes="true" />


<g
   id="g6"
   transform="translate(0,-464)">
</g>
<g
   id="g8"
   transform="translate(0,-464)">
</g>
<g
   id="g10"
   transform="translate(0,-464)">
</g>
<g
   id="g12"
   transform="translate(0,-464)">
</g>
<g
   id="g14"
   transform="translate(0,-464)">
</g>
<g
   id="g16"
   transform="translate(0,-464)">
</g>
<g
   id="g18"
   transform="translate(0,-464)">
</g>
<g
   id="g20"
   transform="translate(0,-464)">
</g>
<g
   id="g22"
   transform="translate(0,-464)">
</g>
<g
   id="g24"
   transform="translate(0,-464)">
</g>
<g
   id="g26"
   transform="translate(0,-464)">
</g>
<g
   id="g28"
   transform="translate(0,-464)">
</g>
<g
   id="g30"
   transform="translate(0,-464)">
</g>
<g
   id="g32"
   transform="translate(0,-464)">
</g>
<g
   id="g34"
   transform="translate(0,-464)">
</g>
<g
   id="g899"><path
     id="path851"
     d="m 24.000976,0.3457035 c -5.833461,0 -10.522198,1.1203776 -13.935546,3.3320313 -4.1011933,2.6574037 -6.2695315,6.9015122 -6.2695315,12.2714832 0,7.226706 5.8062655,16.88549 7.5859375,19.673828 2.031747,3.183082 4.250107,6.079783 6.246093,8.15625 2.542362,2.644284 4.56815,3.875 6.373047,3.875 1.804991,0 3.829009,-1.230625 6.371093,-3.875 1.995894,-2.076376 4.214349,-4.973077 6.246094,-8.15625 C 38.397835,32.8348 44.204101,23.175924 44.204101,15.949219 44.204193,10.57934 42.037899,6.3352307 37.936523,3.6777348 34.523359,1.4660811 29.834346,0.3457035 24.000976,0.3457035 Z"
     style="fill:#a02c2c;stroke-width:0.0924025" /><path
     inkscape:connector-curvature="0"
     id="path859"
     d="m 29.628906,44.40625 c 0.26081,-0.251067 0.469854,-0.343661 0.742188,-0.626953 1.995894,-2.076377 4.214348,-4.973078 6.246094,-8.15625 0.889835,-1.394123 2.786911,-4.505287 4.460937,-8.171875 0.837013,-1.833294 1.619261,-3.806143 2.191406,-5.771484 0.572145,-1.965342 0.933594,-3.923793 0.933594,-5.730469 2e-5,-1.186872 -0.146324,-2.295283 -0.355469,-3.367188 L 37.189453,5.9257812 34.164062,12.800781 29.929688,9.4121094 18.917969,8.5644531 11.669922,17.505859 13.740234,28.517578 Z"
     style="opacity:0.8;fill:url(#linearGradient893);fill-opacity:1;stroke:none;stroke-width:1px;stroke-linecap:butt;stroke-linejoin:miter;stroke-opacity:1" /><path
     id="path2"
     d="m 23.768554,5.9257817 c 3.707637,0 7.054291,1.5087927 9.478515,3.9414062 l 3.94336,-3.9414062 V 17.667968 H 25.446288 l 5.410156,-5.410155 c -1.820264,-1.820266 -4.311356,-2.9765626 -7.08789,-2.9765626 -5.561454,0 -10.066406,4.5029966 -10.066406,10.0644526 0,5.561456 4.504952,10.066406 10.066406,10.066406 4.387091,0 8.094442,-2.801981 9.478515,-6.710938 h 3.490235 c -1.484733,5.78794 -6.719452,10.066407 -12.96875,10.066407 -7.415274,0 -13.404296,-6.006601 -13.404296,-13.421875 0,-7.415274 5.989022,-13.4199213 13.404296,-13.4199213 z"
     style="fill:#ffffff;stroke-width:0.0924025" /><path
     inkscape:connector-curvature="0"
     id="path879"
     d="m 3.9228511,14.736319 c -0.027364,0.413026 -0.1289046,0.785348 -0.1289046,1.212888 0,7.226721 5.8082189,16.885492 7.5878895,19.673839 2.031748,3.18308 4.248155,6.079787 6.244141,8.156258 2.542362,2.644271 4.568149,3.874999 6.373047,3.874999 1.804991,0 3.829008,-1.230651 6.371093,-3.874998 1.995895,-2.076397 4.214349,-4.973103 6.246094,-8.156258 1.779671,-2.788272 7.585936,-12.447119 7.585936,-19.67384 8e-6,-0.42754 -0.101556,-0.799824 -0.128919,-1.212888 -0.08353,1.592163 -0.311131,3.248012 -0.804688,4.943357 -0.572145,1.965354 -1.35439,3.938192 -2.191404,5.771489 -1.674025,3.666596 -3.571101,6.777752 -4.460936,8.171869 -2.031746,3.183194 -4.2502,6.079861 -6.246094,8.156258 -1.271043,1.322193 -2.411549,2.291489 -3.460938,2.929663 -1.049388,0.638211 -2.00766,0.945335 -2.910156,0.945335 -0.902449,0 -1.858349,-0.307276 -2.908203,-0.945335 C 20.040955,44.070744 18.897146,43.101446 17.625965,41.779292 15.62999,39.702819 13.413584,36.806114 11.381836,33.623033 10.492,32.228879 8.5949232,29.117723 6.9208978,25.451165 6.0838852,23.617868 5.3016371,21.64503 4.7294918,19.679676 4.2359399,17.984331 4.0063529,16.328482 3.9228511,14.736319 Z"
     style="opacity:0.5;fill:#000000;stroke-width:0.0924025" /></g></svg>

<svg xmlns="http://www.w3.org/2000/svg" xmlns:xlink="http://www.w3.org/1999/xlink" width="48" height="48"><defs><linearGradient id="b"><stop offset="0" stop-color="#000004"/><stop offset="1" stop-color="#000004" stop-opacity="0"/></linearGradient><linearGradient id="a"><stop offset="0" stop-color="#fff"/><stop offset="1" stop-color="#d3eefc"/></linearGradient><linearGradient xlink:href="#b" id="c" gradientUnits="userSpaceOnUse" x1="12.24" y1="8.09" x2="40.29" y2="38.68"/></defs><path d="M24 .35c-5.83 0-10.52 1.12-13.93 3.33-4.1 2.66-6.27 6.9-6.27 12.27 0 7.23 5.8 16.88 7.58 19.67a54.48 54.48 0 0 0 6.25 8.16c2.54 2.64 4.57 3.87 6.37 3.87 1.8 0 3.83-1.23 6.37-3.87 2-2.08 4.22-4.97 6.25-8.16 1.78-2.79 7.58-12.44 7.58-19.67 0-5.37-2.16-9.61-6.26-12.27C34.52 1.47 29.84.35 24 .35z" fill="#a02c2c"/><path d="M29.63 44.4c.26-.24.47-.34.74-.62 2-2.08 4.22-4.97 6.25-8.16.89-1.4 2.78-4.5 4.46-8.17a43.2 43.2 0 0 0 2.19-5.77c.57-1.97.93-3.92.93-5.73 0-1.19-.14-2.3-.35-3.37l-6.66-6.65-3.03 6.87-4.23-3.39-11.01-.85-7.25 8.95 2.07 11z" opacity=".8" fill="url(#c)"/><path d="M23.77 5.93c3.7 0 7.05 1.5 9.48 3.94l3.94-3.94v11.74H25.45l5.4-5.41a10 10 0 0 0-7.08-2.98 10.06 10.06 0 1 0 9.48 13.42h3.49a13.4 13.4 0 0 1-26.38-3.35 13.4 13.4 0 0 1 13.4-13.42z" fill="#fff"/><path d="M3.92 14.74c-.02.4-.13.78-.13 1.2 0 7.24 5.81 16.9 7.6 19.68a54.48 54.48 0 0 0 6.24 8.16c2.54 2.64 4.56 3.87 6.37 3.87 1.8 0 3.83-1.23 6.37-3.87 2-2.08 4.21-4.97 6.25-8.16 1.78-2.79 7.58-12.44 7.58-19.67 0-.43-.1-.8-.13-1.21a21.6 21.6 0 0 1-.8 4.94 43.2 43.2 0 0 1-2.2 5.77 69.59 69.59 0 0 1-4.45 8.17 54.47 54.47 0 0 1-6.25 8.16 17.98 17.98 0 0 1-3.46 2.93c-1.05.64-2 .94-2.91.94-.9 0-1.86-.3-2.9-.94-1.06-.64-2.2-1.6-3.47-2.93-2-2.08-4.22-4.97-6.25-8.16a69.6 69.6 0 0 1-4.46-8.17 43.2 43.2 0 0 1-2.2-5.77 21.6 21.6 0 0 1-.8-4.94z" opacity=".5"/></svg>
